X:533
T:Catherine Margaret Hall
C:Joe Buchanan's Scottish Tome - Page 062.2
I:062 2
Z:Carl Allison
R:Reel
L:1/8
M:4/4
K:A
"A"c2 "A/E"c/d/c/B/ "A"Ac "A/F"Ec/d/  | "A"ee "D"f/e/c "A/C#"e2 "A"ef/g/ | "F#m"a2 "A/E"g>a "D"fe"A/C#"cA | "B"Be"B/D#"^df "E"e"F#   "=d"E/G#"cB |
"A"c2 "A/E"c/d/c/B/ "A"Ac "A/F"Ec/d/  | "A"ee "D"f/e/c "A/C#"e2 "A"ef/g/ | "F#m"a2 "A/E"g>a "D"fe"A/C#"cA | "Bm"BA"E7"FE "A"A2 "A/E"Ac |
"F#m"f2 f"C#"c "F#m"agf"C#"c | "F#m"f>g"C#"ag "F#m"f2 "B"gf | "E"e2 "E/B"eB "E"gf "E/B"eg/a/ | "Bm"ba"D"gf "E"e"F#   "d"E/G#"cB |
"A"c2 "A/E"c/d/c/B/ "A"Ac "A/E"Ec/d/ | "A"ee  "D"f/e/c "A/G#"e2 "A"ef/g/ |  "F#m"a2 "A/E"g>a "D"fe"A/E"cA | "Bm"BA"E7"FE "A"A2 "A/E"A2 :|
